!!!COM: Music21
!!!OTL: Vinte anos
!!!OMV: pezas_marchas_vinte-anos_vinte-anos-partitura.musicxml
**kern
*I"Gaita
*I'Bag
*clefG^2
*k[]
*M2/4
*MM70
=1
!LO:TX:a:t=[quarter]=70
4.r
16ggLL
16aaJJ
=
8ggL
16ffL
16ddJJ
8ccL
16eeL
16ggJJ
=
16ffLL
16ee
16dd
16ccJJ
8ddL
16eeL
16ffJJ
=
8ggL
16eeL
16ffJJ
16ggLL
16aa
16bb-X
16aaJJ
=
4.gg
16ggLL
16aaJJ
=
16aaLL
16gg
16ee
16ddJJ
16eeLL
16cc
16ee
16ggJJ
=
24ggLL
24ff
24ee
16dd
16ccJJ
8ddL
16aaL
16ggJJ
!!linebreak:original
=
24eeLL
24dd
24cc
16gg
16aaJJ
16cccLL
16ee
16dd
16eeJJ
=
4.cc
16ggLL
16aaJJ
=
32aaLLL
32bb
32aa
32ggJ
16ee
16ddJJ
8ccL
16eeL
16ggJJ
=
24ggLL
24ff
24ee
16dd
16ccJJ
16ccLL
16dd
16ee
16ffJJ
=
8ggL
16eeL
16ffJJ
16ggLL
16aa
16bb-X
16aaJJ
=
16aaLL
16gg
16gg
16ff#XJJ
8ggL
16ggL
16aaJJ
!!linebreak:original
=
16aaLL
16gg
16ee
16ddJJ
16eeLL
16cc
16ee
16ggJJ
=
32aaLLL
32gg
32ff
32eeJ
16dd
16ccJJ
8ddL
16aaL
16ggJJ
=
32ffLLL
32ee
32dd
32ccJ
16gg
16aaJJ
16cccLL
16ee
16dd
16eeJJ
=
2cc
=
8ddL
16eeL
16ffJJ
8ddL
16eeL
16ffJJ
=
16aaLL
16gg
16gg
16ffJJ
16ffLL
16ee
16dd
16ccJJ
!!linebreak:original
=
8ddL
16eeL
16ffJJ
16ddLL
16ee
16ff
16ggJJ
=
8aaL
[8aaJ
8aaL]
32aaLL
32gg
32ff
32eeJJJ
=
8ddL
16eeL
16ffJJ
16ddLL
16ee
16ff
16aaJJ
=
16aaLL
16gg
16ccc
16ggJJ
16aaLL
16gg
16ccc
16ggJJ
=
16cccLL
32bb-XL
32aaJ
16gg
16ffJJ
16eeLL
16dd
16ee
16ccJJ
=
8ddL
[8ddJ
16ddKL]
8dd
16ddJk
!!linebreak:original
=
8ddL
24eeL
24ff
24eeJJ
8ddL
24eeL
24ff
24ggJJ
=
16aaLL
16gg
16gg
16ffJJ
16ffLL
16ee
16dd
16ccJJ
=
8ddL
24eeL
24ff
24eeJJ
24ddLL
24ee
24ff
24ff#X
24gg
24gg#XJJ
=
8aaL
[8aaJ
16aaLL]
16cc
32eeL
32dd
32cc
32eeJJJ
=
16ccLL
16dd
16ee
16ffJJ
16ddLL
16ee
16ff
16aaJJ
!!linebreak:original
=
24aaLL
24gg
24gg
24ccc
24gg
24ggJJ
16aaLL
16gg
16ccc
16ggJJ
=
16cccLL
32bb-XL
32aaJ
16gg
16ffJJ
16eeLL
16dd
16ee
16ccJJ
=
4.dd
8ee
=
16ffLL
16cc
16aa
16ccJJ
16ffLL
16cc
16aa
16ccJJ
=
16eeLL
16cc
16ccc
16ccJJ
16eeLL
16cc
16ccc
16ccJJ
=
16ddLL
16cc
16bb-X
16ccJJ
16ddLL
16cc
16bb-
16ccJJ
!!linebreak:original
=
16eeLL
16ff
16gg
16ffJJ
24ffLL
24ee
24dd
16ee
16ccJJ
=
16ffLL
16b
16cc
16cccJJ
16ffLL
16cc
16ccc
16ccJJ
=
16eeLL
16b
16cc
16cccJJ
16eeLL
16cc
16ccc
16ccJJ
=
16ddLL
16ccc
16bb-X
16aaJJ
16ggLL
16ff
16ee
16ddJJ
=
16ccLL
16dd
16ee
16ccJJ
8ffL
24ccL
24dd
24eeJJ
!!linebreak:original
=
24ffLL
24b
24cc
24aa
24b
24ccJJ
24ffLL
24b
24cc
24aa
24b
24ccJJ
=
24eeLL
24b
24cc
16ccc
16ccJJ
16eeLL
16cc
16ccc
16ccJJ
=
16ddLL
16ff
16bb-X
16ccJJ
24ccLL
24dd
24ff
16bb-
16ddJJ
=
24eeLL
24ff
24gg
16aa
16ggJJ
24ffLL
24ee
24dd
16ee
16ccJJ
!!linebreak:original
=
16ffLL
16b
16cc
16cccJJ
16aaLL
16ff
16ccc
16aaJJ
=
16ggLL
16ee
16cc
16cccJJ
16ggLL
16ee
16ccc
16eeJJ
=
16ddLL
16ff
16bb-X
16ddJJ
16eeLL
16gg
16ccc
16ccJJ
=
8ffL
8ccJ
8ff'
8r
==
*-
